production/images/icons/cart.svg

<svg width="16" height="16" viewBox="0 0 16 16" fill="none" xmlns="http://www.w3.org/2000/svg">
<g clip-path="url(#clip0)">
<path d="M15.3426 3.33759H2.83257L2.64661 1.26596C2.6162 0.927186 2.33227 0.667603 1.99215 0.667603H0.657093C0.29419 0.667603 0 0.961793 0 1.3247C0 1.6876 0.29419 1.98179 0.657093 1.98179H1.39141C1.79271 6.45259 0.755563 -5.10277 2.14716 10.4016C2.20079 11.0085 2.52868 11.667 3.09353 12.1144C2.07513 13.415 3.00564 15.3323 4.66223 15.3323C6.03718 15.3323 7.00696 13.9609 6.53545 12.6621H10.1318C9.6609 13.9593 10.6286 15.3323 12.005 15.3323C13.1035 15.3323 13.9972 14.4386 13.9972 13.3401C13.9972 12.2416 13.1035 11.348 12.005 11.348H4.66668C4.16754 11.348 3.73257 11.0468 3.54483 10.6081L14.0461 9.99091C14.3327 9.97408 14.5753 9.77294 14.645 9.49434L15.9801 4.15405C16.0836 3.73995 15.7702 3.33759 15.3426 3.33759ZM4.66223 14.0181C4.28844 14.0181 3.9843 13.7139 3.9843 13.3401C3.9843 12.9663 4.28844 12.6621 4.66223 12.6621C5.03606 12.6621 5.3402 12.9663 5.3402 13.3401C5.3402 13.7139 5.03606 14.0181 4.66223 14.0181ZM12.005 14.0181C11.6312 14.0181 11.327 13.7139 11.327 13.3401C11.327 12.9663 11.6312 12.6621 12.005 12.6621C12.3788 12.6621 12.683 12.9663 12.683 13.3401C12.683 13.7139 12.3788 14.0181 12.005 14.0181ZM13.4871 8.70732L3.36795 9.30199L2.95054 4.65175H14.501L13.4871 8.70732Z" fill="#05121C"/>
</g>
<defs>
<clipPath id="clip0">
<rect width="16" height="16" fill="white"/>
</clipPath>
</defs>
</svg>

<svg width="16" height="16" viewBox="0 0 16 16" fill="none" xmlns="http://www.w3.org/2000/svg"><g clip-path="url(#clip0)"><path d="M15.343 3.338H2.833l-.186-2.072a.657.657 0 00-.655-.598H.657a.657.657 0 000 1.314h.734c.402 4.47-.635-7.085.756 8.42.054.607.382 1.265.947 1.712-1.019 1.301-.088 3.218 1.568 3.218 1.375 0 2.345-1.371 1.873-2.67h3.597a1.994 1.994 0 001.873 2.67 1.994 1.994 0 001.992-1.992 1.994 1.994 0 00-1.992-1.992H4.667c-.5 0-.934-.301-1.122-.74l10.501-.617a.657.657 0 00.599-.497l1.335-5.34a.657.657 0 00-.637-.816zm-10.68 10.68a.679.679 0 110-1.357.679.679 0 010 1.357zm7.342 0a.679.679 0 11.002-1.358.679.679 0 01-.002 1.358zm1.482-5.31l-10.12.594-.416-4.65H14.5l-1.014 4.055z" fill="#05121C"/></g><defs><clipPath id="clip0"><path fill="#fff" d="M0 0h16v16H0z"/></clipPath></defs></svg>
